images/clients/underline.svg

<svg width="48" height="7" viewBox="0 0 48 7" fill="none" xmlns="http://www.w3.org/2000/svg">
<mask id="mask0_10_210" style="mask-type:luminance" maskUnits="userSpaceOnUse" x="0" y="0" width="48" height="7">
<path d="M0 0H47.7037V7H0V0Z" fill="white"/>
</mask>
<g mask="url(#mask0_10_210)">
<mask id="mask1_10_210" style="mask-type:luminance" maskUnits="userSpaceOnUse" x="-1" y="-1" width="50" height="9">
<path d="M-0.297485 3.80044L47.5859 -0.847656L48.0004 2.69724L0.117062 7.34534L-0.297485 3.80044Z" fill="white"/>
</mask>
<g mask="url(#mask1_10_210)">
<mask id="mask2_10_210" style="mask-type:luminance" maskUnits="userSpaceOnUse" x="-1" y="-1" width="50" height="9">
<path d="M-0.297485 3.80044L47.5859 -0.847656L48.0004 2.69724L0.117062 7.34534L-0.297485 3.80044Z" fill="white"/>
</mask>
<g mask="url(#mask2_10_210)">
<path d="M43.5174 1.85994C43.0081 1.88458 42.4987 1.90787 41.9897 1.93454C40.8305 1.99531 39.6706 2.04594 38.5129 2.12257C37.6445 2.1803 36.7813 2.28697 35.92 2.40175C35.6907 2.43213 35.454 2.41728 35.2261 2.45272C33.0719 2.78625 30.8869 2.88887 28.7264 3.17615C27.7494 3.30646 26.7648 3.38241 25.7919 3.5377C23.6292 3.88304 21.4423 4.08829 19.274 4.40527C17.8288 4.61659 16.3833 4.8269 14.9374 5.0362C13.4681 5.2482 11.9981 5.45379 10.5292 5.66747C9.34784 5.83964 8.1668 6.01383 6.98799 6.19882C6.4034 6.29098 5.8114 6.30819 5.22385 6.36997C4.15025 6.48171 3.08406 6.64611 2.00675 6.73185C1.8456 6.75852 1.68778 6.74738 1.53293 6.69877C1.36511 6.63598 1.16654 6.70215 0.981312 6.7089L0.0462646 6.74131C0.269283 6.64746 0.503786 6.60121 0.749402 6.60189C0.970568 6.5742 1.13172 6.52627 1.13617 6.28996C1.13654 6.26532 1.1721 6.24135 1.21804 6.18363L0.0788653 6.29435C0.255576 6.15291 0.305959 6.14008 0.840907 6.08911C1.0969 6.08067 1.34844 6.04421 1.5948 5.98007C1.84301 5.89905 2.04528 5.72891 2.33535 5.69482C2.23792 5.62122 2.15234 5.65464 2.02527 5.63C2.40315 5.55979 2.73508 5.49835 3.06702 5.43623C3.12184 5.4261 3.18334 5.43049 3.21779 5.37581C3.26558 5.30019 3.01811 5.16651 3.28929 5.12431C3.40636 5.10642 3.41006 4.92413 3.54862 4.88328C3.61975 4.86269 3.67309 4.80901 3.64012 4.73812C3.60382 4.65812 3.51861 4.69795 3.45637 4.70504C3.00774 4.75703 2.55948 4.81205 2.11085 4.86741C1.94414 4.90218 1.78225 4.88834 1.62592 4.82555C1.78522 4.79922 1.94488 4.77424 2.10381 4.74589C2.27571 4.71517 2.44427 4.67736 2.61579 4.64866C3.42785 4.51566 4.23953 4.3813 5.05269 4.25404C6.40525 4.04136 7.75855 3.83645 9.10889 3.62648C10.1165 3.46984 11.1205 3.2943 12.1311 3.15556C12.8535 3.05564 13.5737 2.93782 14.2942 2.82845C15.037 2.7157 15.7791 2.58708 16.523 2.47906C17.2898 2.36799 18.0578 2.25119 18.8265 2.14452C19.6174 2.03447 20.4095 1.93421 21.1997 1.82112C22.5889 1.62262 23.9855 1.48523 25.38 1.33298C26.9374 1.16419 28.497 1.00992 30.0574 0.863073C31.3174 0.744246 32.5795 0.644323 33.8406 0.538999C34.6952 0.467771 35.5529 0.417472 36.4086 0.380676C38.0787 0.308772 39.7465 0.200409 41.4177 0.143021C43.3103 0.078544 45.2038 0.058627 47.0968 0.010691C47.2958 0.00528981 47.4921 0.023519 47.6859 0.0657161C47.4003 0.0933975 47.115 0.13627 46.8283 0.146059C46.2251 0.165976 45.618 0.131544 45.0182 0.187244C44.2306 0.260161 43.4382 0.179142 42.6557 0.276702C42.219 0.332065 41.7796 0.360421 41.3384 0.362109C41.3154 0.362109 41.2847 0.358058 41.2706 0.36886C40.9405 0.639597 40.5215 0.494777 40.1492 0.566343C39.7187 0.650737 39.2838 0.708126 38.8448 0.739183C37.433 0.836067 36.0215 0.93734 34.6111 1.05515C32.91 1.19727 31.2077 1.33231 29.5136 1.53451C29.4158 1.54633 29.3009 1.52709 29.2128 1.6314C29.3135 1.71039 29.431 1.67663 29.5321 1.67022C30.8013 1.59359 32.0701 1.51358 33.339 1.43054C33.6746 1.40894 34.0117 1.39408 34.3452 1.35627C34.7734 1.32623 35.1998 1.33737 35.6255 1.39003C35.7407 1.40083 35.8566 1.40286 35.9726 1.39577C37.5585 1.27424 39.1508 1.2334 40.7382 1.13786C41.0961 1.09499 41.4551 1.08554 41.8152 1.1095C42.1967 1.15879 42.5935 1.11052 42.9654 1.28505C43.2285 1.39138 43.5019 1.42413 43.786 1.38328C43.9212 1.36404 44.0546 1.37214 44.1858 1.40759C44.0579 1.48422 43.9179 1.51595 43.7656 1.50278C43.6956 1.49839 43.6282 1.50785 43.5626 1.53114C43.3233 1.59393 43.3166 1.626 43.4952 1.80086C43.5089 1.81403 43.5078 1.84002 43.5141 1.8596L43.5174 1.85994ZM16.3911 5.16009C16.2888 5.11013 16.1799 5.07941 16.0643 5.06861C15.9487 5.05747 15.8354 5.06692 15.7239 5.09663C15.4531 5.1557 15.18 5.20128 14.904 5.23267C13.8771 5.34509 12.8609 5.51995 11.8392 5.66308C9.16372 6.03847 6.49157 6.43411 3.80646 6.7511C3.74237 6.75852 3.66235 6.74536 3.6316 6.80612C3.64049 6.83279 3.65457 6.85676 3.67346 6.8787C3.69273 6.9003 3.71532 6.9182 3.742 6.93204C3.76867 6.94554 3.79683 6.95432 3.8272 6.95837C3.85758 6.96208 3.88759 6.96073 3.91723 6.95432C4.29547 6.89963 4.6789 6.87296 5.05825 6.82266C7.19434 6.53842 9.31857 6.18059 11.4628 5.94597C11.5662 5.93483 11.6677 5.9085 11.7707 5.89466C12.5716 5.79136 13.3592 5.61954 14.1609 5.51826C14.8162 5.43556 15.4686 5.33361 16.1217 5.23639C16.2177 5.23335 16.304 5.20533 16.3803 5.15233L16.3911 5.16009ZM14.7225 5.3488C14.6899 5.37412 14.6525 5.38897 14.6099 5.39336C14.5677 5.39741 14.5273 5.39066 14.4895 5.37243C14.5636 5.33563 14.6414 5.32787 14.7225 5.3488ZM16.3803 5.15233C16.4581 5.179 16.5374 5.18204 16.6178 5.16178C17.1309 5.08414 17.6447 5.00717 18.1593 4.93797C19.3859 4.77289 20.6129 4.61052 21.8402 4.45017C22.1599 4.40797 22.48 4.36645 22.8086 4.32358C22.7141 4.28239 22.6148 4.26113 22.51 4.25978C22.4055 4.25809 22.3055 4.27699 22.2099 4.31581C21.9717 4.40257 21.6857 4.37725 21.4216 4.41135C21.0522 4.43464 20.6869 4.48393 20.3261 4.55954C20.0475 4.64056 19.7645 4.65812 19.4766 4.61254L20.0094 4.53119C19.4092 4.57372 18.8132 4.64495 18.2215 4.74555C17.711 4.80597 17.202 4.88936 16.6908 4.95316C16.5985 4.96362 16.5085 4.98253 16.4207 5.0092C16.3314 5.03857 16.3403 5.09933 16.39 5.16009L16.3803 5.15233ZM17.8096 4.86978C18.0274 4.7945 18.2526 4.76749 18.4846 4.78977C18.2649 4.8529 18.04 4.87957 17.8099 4.86978H17.8096ZM35.3154 2.78355L37.6408 2.55805L37.6386 2.53712L35.3221 2.76195L35.3154 2.78355ZM44.5888 1.74989C44.631 1.84103 44.7188 1.82753 44.797 1.81774C45.0163 1.80795 45.233 1.77993 45.4464 1.73369L44.5877 1.74989H44.5888ZM22.0302 4.25505L21.253 4.33033L21.2563 4.35801L22.0336 4.28239L22.0302 4.25505ZM44.5877 1.74989C44.2287 1.78365 43.8597 1.72862 43.5141 1.86061C43.516 1.86028 43.5174 1.8596 43.5189 1.85893C43.8816 1.86939 44.2384 1.83293 44.5896 1.74989H44.5877ZM33.8291 2.92229L34.2966 2.87706L34.2944 2.86086L33.8202 2.90677L33.8291 2.92229ZM29.6947 3.31962L29.2243 3.3652L29.2265 3.38444L29.6936 3.3392L29.6947 3.31962ZM24.8413 3.90566C24.6487 3.93401 24.5086 3.89587 24.3849 3.97148C24.5453 3.99849 24.6976 3.97655 24.8413 3.90566ZM30.12 3.29093L30.5235 3.25177C30.3857 3.23489 30.2512 3.24772 30.12 3.29093ZM24.625 4.08086L25.0165 4.04271C24.8861 4.03022 24.7457 3.95292 24.625 4.08086ZM31.9583 3.08332C31.8223 3.08163 31.6945 3.10999 31.5748 3.16839C31.7319 3.13396 31.8323 3.15826 31.9583 3.08332ZM34.6626 2.84668C34.7438 2.85714 34.8208 2.84533 34.8938 2.81123C34.8131 2.81461 34.7312 2.79537 34.6634 2.84668H34.6626ZM23.6792 4.06027C23.7155 4.05689 23.7155 4.0363 23.6673 4.01874L23.3317 4.07309C23.4973 4.06769 23.5888 4.06803 23.6792 4.06027ZM23.5284 4.19057C23.6584 4.20272 23.7833 4.18382 23.9022 4.1342C23.7481 4.14871 23.6558 4.09571 23.5284 4.19057ZM28.0051 3.54884C27.9413 3.53432 27.881 3.54107 27.8235 3.5701C27.8884 3.57382 27.9488 3.58867 28.0051 3.54884ZM26.0787 3.74902L26.2446 3.73282L26.079 3.72674L26.0787 3.74902ZM31.1551 3.18324C31.1807 3.19337 31.2077 3.19674 31.2355 3.19337C31.2633 3.18999 31.2881 3.18054 31.3103 3.16434C31.2525 3.15759 31.1966 3.13868 31.1544 3.18324H31.1551ZM28.8945 3.40267C28.8723 3.40064 28.8505 3.4003 28.8282 3.40199C28.8127 3.4057 28.7979 3.41178 28.7841 3.41988L28.8512 3.42393C28.8656 3.41651 28.8797 3.40908 28.8942 3.40233L28.8945 3.40267Z" fill="url(#paint0_linear_10_210)"/>
</g>
</g>
</g>
<defs>
<linearGradient id="paint0_linear_10_210" x1="0.0462646" y1="3.48509" x2="47.6859" y2="3.48509" gradientUnits="userSpaceOnUse">
<stop stop-color="#0CBAF1"/>
<stop offset="1" stop-color="#E95CE9"/>
</linearGradient>
</defs>
</svg>

<svg xmlns="http://www.w3.org/2000/svg" width="48" height="7" fill="none" viewBox="0 0 48 7"><mask id="a" width="48" height="7" x="0" y="0" maskUnits="userSpaceOnUse" style="mask-type:luminance"><path fill="#fff" d="M0 0h47.704v7H0z"/></mask><g mask="url(#a)"><mask id="b" width="50" height="9" x="-1" y="-1" maskUnits="userSpaceOnUse" style="mask-type:luminance"><path fill="#fff" d="M-.297 3.8 47.586-.848 48 2.697.117 7.345z"/></mask><g mask="url(#b)"><mask id="c" width="50" height="9" x="-1" y="-1" maskUnits="userSpaceOnUse" style="mask-type:luminance"><path fill="#fff" d="M-.297 3.8 47.586-.848 48 2.697.117 7.345z"/></mask><g mask="url(#c)"><path fill="url(#d)" d="M43.517 1.86q-.764.036-1.527.075c-1.16.06-2.32.11-3.477.188a40 40 0 0 0-2.593.279c-.23.03-.466.015-.694.05-2.154.334-4.34.437-6.5.724-.977.13-1.961.206-2.934.362-2.163.345-4.35.55-6.518.867q-2.167.318-4.337.631c-1.469.212-2.939.418-4.408.631-1.181.173-2.362.347-3.541.532-.585.092-1.177.11-1.764.171-1.074.112-2.14.276-3.217.362a1 1 0 0 1-.474-.033c-.168-.063-.366.003-.552.01l-.935.032q.335-.14.703-.14c.222-.027.383-.075.387-.311 0-.025.036-.049.082-.106l-1.14.11c.178-.141.228-.154.763-.205q.384-.012.754-.109c.248-.081.45-.251.74-.285-.097-.074-.183-.04-.31-.065l1.042-.194c.055-.01.116-.006.15-.06.049-.076-.199-.21.072-.252.117-.018.121-.2.26-.24.07-.021.124-.075.091-.146-.036-.08-.121-.04-.184-.033q-.672.079-1.345.162a.82.82 0 0 1-.485-.041q.24-.04.478-.08c.172-.03.34-.069.512-.097.812-.133 1.624-.268 2.437-.395 1.352-.213 2.706-.418 4.056-.628 1.008-.156 2.011-.332 3.022-.47.723-.1 1.443-.218 2.163-.328.743-.112 1.485-.24 2.229-.349.767-.111 1.535-.228 2.303-.334.791-.11 1.584-.21 2.374-.324 1.389-.198 2.785-.336 4.18-.488 1.557-.169 3.117-.323 4.677-.47C31.317.744 32.58.644 33.841.54a64 64 0 0 1 2.568-.158c1.67-.072 3.337-.18 5.009-.238C43.31.079 45.204.059 47.097.011q.298-.008.589.055c-.286.027-.571.07-.858.08-.603.02-1.21-.014-1.81.041-.787.073-1.58-.008-2.362.09Q42 .359 41.338.362c-.023 0-.053-.004-.067.007-.33.27-.75.126-1.122.197a11 11 0 0 1-1.304.173 287 287 0 0 0-4.234.316c-1.701.142-3.403.277-5.097.48-.098.011-.213-.008-.301.096.1.08.218.046.32.04q1.902-.116 3.806-.24c.336-.022.673-.037 1.006-.075q.642-.045 1.28.034.174.016.348.006c1.586-.122 3.178-.163 4.765-.258a6 6 0 0 1 1.077-.028c.382.049.779 0 1.15.175q.395.16.821.098a1 1 0 0 1 .4.025.7.7 0 0 1-.42.095.5.5 0 0 0-.203.028c-.24.063-.246.095-.068.27.014.013.013.039.02.059zm-27.126 3.3a.955.955 0 0 0-.667-.063q-.406.088-.82.136c-1.027.112-2.043.287-3.065.43-2.675.375-5.347.771-8.033 1.088-.064.008-.144-.006-.174.055q.013.04.041.073a.24.24 0 0 0 .154.08q.045.005.09-.005c.378-.054.762-.081 1.141-.131 2.136-.285 4.26-.642 6.405-.877.103-.011.205-.037.308-.051.8-.104 1.588-.275 2.39-.377.655-.082 1.308-.184 1.96-.282a.47.47 0 0 0 .26-.084zm-1.668.189a.224.224 0 0 1-.233.024.33.33 0 0 1 .232-.024m1.657-.197a.4.4 0 0 0 .238.01 94 94 0 0 1 1.541-.224Q20 4.691 21.84 4.45l.969-.126a.76.76 0 0 0-.6-.008c-.237.087-.523.061-.787.095q-.555.036-1.096.149a1.9 1.9 0 0 1-.85.053l.533-.082q-.9.064-1.788.215c-.51.06-1.019.143-1.53.207q-.138.016-.27.056c-.09.03-.08.09-.031.151zm1.43-.282q.326-.114.675-.08-.33.095-.675.08m17.505-2.086 2.326-.226-.002-.02-2.317.224zM44.59 1.75c.042.091.13.078.208.068q.33-.015.65-.084l-.86.016zM22.03 4.255l-.777.075.003.028.778-.076zM44.588 1.75c-.36.034-.728-.021-1.074.11l.005-.001q.545.016 1.07-.11zM33.829 2.922l.468-.045-.003-.016-.474.046zm-4.134.398-.47.045.002.02.467-.046zm-4.854.586c-.192.028-.332-.01-.456.065q.24.041.456-.065m5.279-.615.403-.04a.9.9 0 0 0-.403.04m-5.495.79.392-.038c-.13-.013-.271-.09-.392.038m7.333-.998a.84.84 0 0 0-.383.085c.157-.034.257-.01.383-.085m2.705-.236a.4.4 0 0 0 .23-.036c-.08.004-.162-.016-.23.036M23.679 4.06c.037-.003.037-.024-.012-.041l-.335.054c.165-.005.257-.005.347-.013m-.15.13a.8.8 0 0 0 .373-.056c-.154.015-.246-.038-.374.057m4.476-.641a.26.26 0 0 0-.181.021c.064.004.125.019.181-.021m-1.926.2.166-.016-.166-.006zm5.076-.566q.04.015.08.01a.16.16 0 0 0 .075-.029c-.057-.006-.113-.025-.156.02zm-2.26.22a.4.4 0 0 0-.067-.001.2.2 0 0 0-.044.018l.067.004z"/></g></g></g><defs><linearGradient id="d" x1=".046" x2="47.686" y1="3.485" y2="3.485" gradientUnits="userSpaceOnUse"><stop stop-color="#0cbaf1"/><stop offset="1" stop-color="#e95ce9"/></linearGradient></defs></svg>
